static/assets/items/scrap.svg

<svg xmlns="http://www.w3.org/2000/svg" viewBox="0 0 32 32"><path d="M0 .5V0h32v32H0V.5M9.5 12q.5 0 .875-.125T11 11.5l.5-.5q.25-.25.375-.625T12 9.5v-1-1-1q0-.5-.125-.875T11.5 5l-.5-.5q-.25-.25-.625-.375T9.5 4h-3q-.5 0-.875.125T5 4.5l-.5.5q-.25.25-.375.625T4 6.5v2q0 .5.125.875T4.5 10l.5.5.5.5.5.5q.25.25.625.375T7.5 12h2m-2 16q.5 0 .875-.125T9 27.5l.5-.5.5-.5.5-.5.5-.5.5-.5.5-.5q.25-.25.625-.375T13.5 24h4q.5 0 .875-.125T19 23.5l.5-.5.5-.5.5-.5.5-.5.5-.5.5-.5.5-.5.5-.5.5-.5.5-.5.5-.5.5-.5.5-.5.5-.5.5-.5.5-.5.5-.5.5-.5.5-.5q.25-.25.375-.625T29 12.5v-1-1-2q0-.5-.125-.875T28.5 7l-.5-.5q-.25-.25-.625-.375t-.5-.5Q26.75 5.25 26.5 5l-.5-.5q-.25-.25-.625-.375T24.5 4h-3q-.5 0-.875.125T20 4.5l-.5.5-.5.5-.5.5-.5.5-.5.5-.5.5-.5.5-.5.5-.5.5-.5.5-.5.5-.5.5-.5.5-.5.5-.5.5q-.25.25-.375.625t-.5.5q-.375.125-.625.375l-.5.5-.5.5-.5.5-.5.5-.5.5-.5.5-.5.5-.5.5-.5.5-.5.5-.5.5-.5.5-.5.5q-.25.25-.375.625T4 21.5v4q0 .5.125.875T4.5 27l.5.5q.25.25.625.375T6.5 28h1" fill="none"/><path d="M5 4.5q.25-.25.625-.375T6.5 4h3q.5 0 .875.125T11 4.5l.5.5q.25.25.375.625T12 6.5V7l-.375.125Q11.25 7.25 11 7.5l-.5.5-.5.5-.5.5-.5.5-.5.5-.5.5-.5.5q-.25.25-.3594.6094l-.1094.3593.1094.0157L7.25 12l-.2188-.0313q-.2187-.0312-.4062-.0937l-.1875-.0625.2813.0938L7 12l-.375-.125Q6.25 11.75 6 11.5l-.5-.5-.5-.5-.5-.5q-.25-.25-.375-.625T4 8.5v-1-1q0-.5.125-.875T4.5 5l.5-.5m7 2.625V6.25v1-.125M20 4.5q.25-.25.625-.375T21.5 4h3q.5 0 .875.125T26 4.5l.5.5q.25.25.375.625L27 6l-.0938-.2813-.0937-.2812.0625.1875q.0625.1875.1875.3125l.125.125L27.125 6l-.0625-.0625-.1563.4063Q26.75 6.75 26.5 7l-.5.5-.5.5-.5.5-.5.5-.5.5-.5.5-.5.5-.5.5-.5.5-.5.5-.5.5-.5.5-.5.5-.5.5-.5.5-.5.5-.5.5q-.25.25-.625.375T16.5 16h-2q-.5 0-.875-.125T13 15.5l-.5-.5q-.25-.25-.375-.625t-.1563-.9063l-.0312-.5312L11.875 13l-.0625.0625.125-.125q.125-.125.1875-.3125l.0625-.1875-.0938.2813L12 13l.125-.375q.125-.375.375-.625l.5-.5.5-.5.5-.5.5-.5.5-.5.5-.5.5-.5.5-.5.5-.5.5-.5.5-.5.5-.5.5-.5.5-.5.5-.5" fill="#e0b28d"/><path d="M26.9063 6.3438l.1562-.4063L27 5.875l-.0625-.0625.125.125q.125.125.3125.1875l.1875.0625-.2813-.0938L27 6l.375.125q.375.125.625.375l.5.5q.25.25.375.625T29 8.5V9h-.5q-.5 0-.5.5t-.5.5-.5.5-.5.5-.5.5-.5.5-.5.5-.5.5-.5.5-.5.5-.5.5-.5.5-.5.5-.5.5-.5.5-.5.5-.5.5-.5.5h-3q-.5 0-.5.5t-.5.5-.5.5-.5.5-.5.5-.5.5-.5.5-.5.5-.5.5q0 .5-.125.875t.1406.6406l.2657.2657.078-.047.0782-.0468-.1562.0938Q12.125 24.375 12 24.5l-.125.125.1875-.1875.1875-.1875-.25.25-.5.5-.5.5-.5.5-.5.5-.5.5-.5.5q-.25.25-.625.375T7.5 28h-1q-.5 0-.875-.125T5 27.5l-.5-.5q-.25-.25-.375-.625T4 25.5v-1-1-1-1q0-.5.125-.875T4.5 20l.5-.5.5-.5.5-.5.5-.5.5-.5.5-.5.5-.5.5-.5.5-.5.5-.5.5-.5.5-.5.5-.5q.25-.25.625-.375L12 13l-.2813.0938-.2812.0937.1875-.0625q.1875-.0625.3125-.1875l.125-.125L12 12.875l-.0625.0625.0313.5313Q12 14 12.125 14.375T12.5 15l.5.5q.25.25.625.375T14.5 16h2q.5 0 .875-.125T18 15.5l.5-.5.5-.5.5-.5.5-.5.5-.5.5-.5.5-.5.5-.5.5-.5.5-.5.5-.5.5-.5.5-.5.5-.5.5-.5.5-.5.5-.5q.25-.25.4063-.6563M11 7.5q.25-.25.625-.375L12 7v2.5q0 .5-.125.875T11.5 11l-.5.5q-.25.25-.625.375T9.5 12H7h.75-.25q-.25 0-.4688-.0313l-.2187-.0312.1094.0156.1094.0157.1093-.3594Q7.25 11.25 7.5 11l.5-.5.5-.5.5-.5.5-.5.5-.5.5-.5.5-.5m1-.125V6.75v1-.375" fill="#9b928b"/><path d="M28 9.5q0-.5.5-.5h.5v3.5q0 .5-.125.875T28.5 14l-.5.5-.5.5-.5.5-.5.5-.5.5-.5.5-.5.5-.5.5-.5.5-.5.5-.5.5-.5.5-.5.5-.5.5-.5.5-.5.5-.5.5-.5.5-.5.5q-.25.25-.625.375T17.5 24h-4q-.5 0-.875.125l-.375.125.2813-.0938.2812-.0937-.1875.0625q-.1875.0625-.3438.1563l-.1562.0937.0781-.0469.0782-.0468-.2657-.2657q-.2656-.2656-.1406-.6406Q12 23 12 22.5t.5-.5.5-.5.5-.5.5-.5.5-.5.5-.5.5-.5.5-.5.5-.5h3q.5 0 .5-.5t.5-.5.5-.5.5-.5.5-.5.5-.5.5-.5.5-.5.5-.5.5-.5.5-.5.5-.5.5-.5.5-.5.5-.5.5-.5.5-.5" fill="#666"/></svg>

<?xml version="1.0" encoding="UTF-8" standalone="no"?>
<!-- Created with Inkscape (http://www.inkscape.org/) -->

<svg
   xmlns:dc="http://purl.org/dc/elements/1.1/"
   xmlns:cc="http://creativecommons.org/ns#"
   xmlns:rdf="http://www.w3.org/1999/02/22-rdf-syntax-ns#"
   xmlns:svg="http://www.w3.org/2000/svg"
   xmlns="http://www.w3.org/2000/svg"
   xmlns:sodipodi="http://sodipodi.sourceforge.net/DTD/sodipodi-0.dtd"
   xmlns:inkscape="http://www.inkscape.org/namespaces/inkscape"
   version="1.1"
   id="svg9208"
   width="32"
   height="32"
   viewBox="0 0 32 32"
   sodipodi:docname="scrap.svg"
   inkscape:version="0.92.5 (2060ec1f9f, 2020-04-08)">
  <metadata
     id="metadata9214">
    <rdf:RDF>
      <cc:Work
         rdf:about="">
        <dc:format>image/svg+xml</dc:format>
        <dc:type
           rdf:resource="http://purl.org/dc/dcmitype/StillImage" />
        <dc:title></dc:title>
      </cc:Work>
    </rdf:RDF>
  </metadata>
  <defs
     id="defs9212" />
  <sodipodi:namedview
     pagecolor="#ffffff"
     bordercolor="#666666"
     borderopacity="1"
     objecttolerance="10"
     gridtolerance="10"
     guidetolerance="10"
     inkscape:pageopacity="0"
     inkscape:pageshadow="2"
     inkscape:window-width="1366"
     inkscape:window-height="705"
     id="namedview9210"
     showgrid="false"
     inkscape:zoom="7.375"
     inkscape:cx="16"
     inkscape:cy="16"
     inkscape:window-x="-8"
     inkscape:window-y="-8"
     inkscape:window-maximized="1"
     inkscape:current-layer="svg9208" />
  <g
     id="g9773">
    <path
       style="fill:#000000;fill-opacity:0"
       d="M 0,0.5 V 0 H 0.5 1 1.5 2 2.5 3 3.5 4 4.5 5 5.5 6 6.5 7 7.5 8 8.5 9 9.5 10 10.5 11 11.5 12 12.5 13 13.5 14 14.5 15 15.5 16 16.5 17 17.5 18 18.5 19 19.5 20 20.5 21 21.5 22 22.5 23 23.5 24 24.5 25 25.5 26 26.5 27 27.5 28 28.5 29 29.5 30 30.5 31 31.5 32 V 0.5 1 1.5 2 2.5 3 3.5 4 4.5 5 5.5 6 6.5 7 7.5 8 8.5 9 9.5 10 10.5 11 11.5 12 12.5 13 13.5 14 14.5 15 15.5 16 16.5 17 17.5 18 18.5 19 19.5 20 20.5 21 21.5 22 22.5 23 23.5 24 24.5 25 25.5 26 26.5 27 27.5 28 28.5 29 29.5 30 30.5 31 31.5 32 H 31.5 31 30.5 30 29.5 29 28.5 28 27.5 27 26.5 26 25.5 25 24.5 24 23.5 23 22.5 22 21.5 21 20.5 20 19.5 19 18.5 18 17.5 17 16.5 16 15.5 15 14.5 14 13.5 13 12.5 12 11.5 11 10.5 10 9.5 9 8.5 8 7.5 7 6.5 6 5.5 5 4.5 4 3.5 3 2.5 2 1.5 1 0.5 0 V 31.5 31 30.5 30 29.5 29 28.5 28 27.5 27 26.5 26 25.5 25 24.5 24 23.5 23 22.5 22 21.5 21 20.5 20 19.5 19 18.5 18 17.5 17 16.5 16 15.5 15 14.5 14 13.5 13 12.5 12 11.5 11 10.5 10 9.5 9 8.5 8 7.5 7 6.5 6 5.5 5 4.5 4 3.5 3 2.5 2 1.5 1 0.5 M 9.5,12 Q 10,12 10.375,11.875 10.75,11.75 11,11.5 11.25,11.25 11.5,11 11.75,10.75 11.875,10.375 12,10 12,9.5 12,9 12,8.5 12,8 12,7.5 12,7 12,6.5 12,6 11.875,5.625 11.75,5.25 11.5,5 11.25,4.75 11,4.5 10.75,4.25 10.375,4.125 10,4 9.5,4 9,4 8.5,4 8,4 7.5,4 7,4 6.5,4 6,4 5.625,4.125 5.25,4.25 5,4.5 4.75,4.75 4.5,5 4.25,5.25 4.125,5.625 4,6 4,6.5 4,7 4,7.5 4,8 4,8.5 4,9 4.125,9.375 4.25,9.75 4.5,10 4.75,10.25 5,10.5 5.25,10.75 5.5,11 5.75,11.25 6,11.5 6.25,11.75 6.625,11.875 7,12 7.5,12 q 0.5,0 1,0 0.5,0 1,0 m -2,16 Q 8,28 8.375,27.875 8.75,27.75 9,27.5 9.25,27.25 9.5,27 9.75,26.75 10,26.5 10.25,26.25 10.5,26 10.75,25.75 11,25.5 11.25,25.25 11.5,25 11.75,24.75 12,24.5 12.25,24.25 12.625,24.125 13,24 13.5,24 q 0.5,0 1,0 0.5,0 1,0 0.5,0 1,0 0.5,0 1,0 0.5,0 0.875,-0.125 Q 18.75,23.75 19,23.5 19.25,23.25 19.5,23 19.75,22.75 20,22.5 20.25,22.25 20.5,22 20.75,21.75 21,21.5 21.25,21.25 21.5,21 21.75,20.75 22,20.5 22.25,20.25 22.5,20 22.75,19.75 23,19.5 23.25,19.25 23.5,19 23.75,18.75 24,18.5 24.25,18.25 24.5,18 24.75,17.75 25,17.5 25.25,17.25 25.5,17 25.75,16.75 26,16.5 26.25,16.25 26.5,16 26.75,15.75 27,15.5 27.25,15.25 27.5,15 27.75,14.75 28,14.5 28.25,14.25 28.5,14 28.75,13.75 28.875,13.375 29,13 29,12.5 q 0,-0.5 0,-1 0,-0.5 0,-1 0,-0.5 0,-1 V 9 8.5 Q 29,8 28.875,7.625 28.75,7.25 28.5,7 28.25,6.75 28,6.5 27.75,6.25 27.375,6.125 27,6 26.875,5.625 26.75,5.25 26.5,5 26.25,4.75 26,4.5 25.75,4.25 25.375,4.125 25,4 24.5,4 24,4 23.5,4 23,4 22.5,4 22,4 21.5,4 21,4 20.625,4.125 20.25,4.25 20,4.5 19.75,4.75 19.5,5 19.25,5.25 19,5.5 18.75,5.75 18.5,6 18.25,6.25 18,6.5 17.75,6.75 17.5,7 17.25,7.25 17,7.5 16.75,7.75 16.5,8 16.25,8.25 16,8.5 15.75,8.75 15.5,9 15.25,9.25 15,9.5 14.75,9.75 14.5,10 14.25,10.25 14,10.5 13.75,10.75 13.5,11 13.25,11.25 13,11.5 12.75,11.75 12.5,12 12.25,12.25 12.125,12.625 12,13 11.625,13.125 11.25,13.25 11,13.5 10.75,13.75 10.5,14 10.25,14.25 10,14.5 9.75,14.75 9.5,15 9.25,15.25 9,15.5 8.75,15.75 8.5,16 8.25,16.25 8,16.5 7.75,16.75 7.5,17 7.25,17.25 7,17.5 6.75,17.75 6.5,18 6.25,18.25 6,18.5 5.75,18.75 5.5,19 5.25,19.25 5,19.5 4.75,19.75 4.5,20 4.25,20.25 4.125,20.625 4,21 4,21.5 q 0,0.5 0,1 0,0.5 0,1 0,0.5 0,1 0,0.5 0,1 Q 4,26 4.125,26.375 4.25,26.75 4.5,27 4.75,27.25 5,27.5 5.25,27.75 5.625,27.875 6,28 6.5,28 q 0.5,0 1,0"
       id="path9761"
       inkscape:connector-curvature="0" />
    <path
       style="fill:#e0b28d;fill-opacity:1"
       d="M 5,4.5 Q 5.25,4.25 5.625,4.125 6,4 6.5,4 7,4 7.5,4 8,4 8.5,4 9,4 9.5,4 10,4 10.375,4.125 10.75,4.25 11,4.5 11.25,4.75 11.5,5 11.75,5.25 11.875,5.625 12,6 12,6.5 V 7 L 11.625,7.125 Q 11.25,7.25 11,7.5 10.75,7.75 10.5,8 10.25,8.25 10,8.5 9.75,8.75 9.5,9 9.25,9.25 9,9.5 8.75,9.75 8.5,10 8.25,10.25 8,10.5 7.75,10.75 7.5,11 7.25,11.25 7.140625,11.609375 L 7.03125,11.96875 7.140625,11.984375 7.25,12 7.03125,11.96875 Q 6.8125,11.9375 6.625,11.875 L 6.4375,11.8125 6.71875,11.90625 7,12 6.625,11.875 Q 6.25,11.75 6,11.5 5.75,11.25 5.5,11 5.25,10.75 5,10.5 4.75,10.25 4.5,10 4.25,9.75 4.125,9.375 4,9 4,8.5 4,8 4,7.5 4,7 4,6.5 4,6 4.125,5.625 4.25,5.25 4.5,5 4.75,4.75 5,4.5 m 7,2.625 V 7 6.625 6.25 6.5 Q 12,6.75 12,7 V 7.25 7.125"
       id="path9763"
       inkscape:connector-curvature="0" />
    <path
       style="fill:#e0b28d;fill-opacity:1"
       d="M 20,4.5 Q 20.25,4.25 20.625,4.125 21,4 21.5,4 q 0.5,0 1,0 0.5,0 1,0 0.5,0 1,0 Q 25,4 25.375,4.125 25.75,4.25 26,4.5 26.25,4.75 26.5,5 26.75,5.25 26.875,5.625 L 27,6 26.90625,5.71875 26.8125,5.4375 26.875,5.625 q 0.0625,0.1875 0.1875,0.3125 l 0.125,0.125 L 27.125,6 27.0625,5.9375 26.90625,6.34375 Q 26.75,6.75 26.5,7 26.25,7.25 26,7.5 25.75,7.75 25.5,8 25.25,8.25 25,8.5 24.75,8.75 24.5,9 24.25,9.25 24,9.5 23.75,9.75 23.5,10 23.25,10.25 23,10.5 22.75,10.75 22.5,11 22.25,11.25 22,11.5 21.75,11.75 21.5,12 21.25,12.25 21,12.5 20.75,12.75 20.5,13 20.25,13.25 20,13.5 19.75,13.75 19.5,14 19.25,14.25 19,14.5 18.75,14.75 18.5,15 18.25,15.25 18,15.5 17.75,15.75 17.375,15.875 17,16 16.5,16 16,16 15.5,16 15,16 14.5,16 14,16 13.625,15.875 13.25,15.75 13,15.5 12.75,15.25 12.5,15 12.25,14.75 12.125,14.375 12,14 11.96875,13.46875 L 11.9375,12.9375 11.875,13 l -0.0625,0.0625 0.125,-0.125 q 0.125,-0.125 0.1875,-0.3125 L 12.1875,12.4375 12.09375,12.71875 12,13 12.125,12.625 Q 12.25,12.25 12.5,12 12.75,11.75 13,11.5 13.25,11.25 13.5,11 13.75,10.75 14,10.5 14.25,10.25 14.5,10 14.75,9.75 15,9.5 15.25,9.25 15.5,9 15.75,8.75 16,8.5 16.25,8.25 16.5,8 16.75,7.75 17,7.5 17.25,7.25 17.5,7 17.75,6.75 18,6.5 18.25,6.25 18.5,6 18.75,5.75 19,5.5 19.25,5.25 19.5,5 19.75,4.75 20,4.5"
       id="path9765"
       inkscape:connector-curvature="0" />
    <path
       style="fill:#9b928b;fill-opacity:1"
       d="M 26.90625,6.34375 27.0625,5.9375 27,5.875 26.9375,5.8125 l 0.125,0.125 q 0.125,0.125 0.3125,0.1875 L 27.5625,6.1875 27.28125,6.09375 27,6 27.375,6.125 Q 27.75,6.25 28,6.5 28.25,6.75 28.5,7 28.75,7.25 28.875,7.625 29,8 29,8.5 V 9 H 28.5 Q 28,9 28,9.5 28,10 27.5,10 27,10 27,10.5 27,11 26.5,11 26,11 26,11.5 26,12 25.5,12 25,12 25,12.5 25,13 24.5,13 24,13 24,13.5 24,14 23.5,14 23,14 23,14.5 23,15 22.5,15 22,15 22,15.5 22,16 21.5,16 21,16 21,16.5 21,17 20.5,17 20,17 20,17.5 20,18 19.5,18 q -0.5,0 -1,0 -0.5,0 -1,0 -0.5,0 -1,0 Q 16,18 16,18.5 16,19 15.5,19 15,19 15,19.5 15,20 14.5,20 14,20 14,20.5 14,21 13.5,21 13,21 13,21.5 13,22 12.5,22 12,22 12,22.5 q 0,0.5 -0.125,0.875 -0.125,0.375 0.140625,0.640625 l 0.265625,0.265625 0.07813,-0.04687 0.07813,-0.04687 -0.15625,0.09375 Q 12.125,24.375 12,24.5 L 11.875,24.625 12.0625,24.4375 12.25,24.25 12,24.5 Q 11.75,24.75 11.5,25 11.25,25.25 11,25.5 10.75,25.75 10.5,26 10.25,26.25 10,26.5 9.75,26.75 9.5,27 9.25,27.25 9,27.5 8.75,27.75 8.375,27.875 8,28 7.5,28 7,28 6.5,28 6,28 5.625,27.875 5.25,27.75 5,27.5 4.75,27.25 4.5,27 4.25,26.75 4.125,26.375 4,26 4,25.5 4,25 4,24.5 4,24 4,23.5 4,23 4,22.5 4,22 4,21.5 4,21 4.125,20.625 4.25,20.25 4.5,20 4.75,19.75 5,19.5 5.25,19.25 5.5,19 5.75,18.75 6,18.5 6.25,18.25 6.5,18 6.75,17.75 7,17.5 7.25,17.25 7.5,17 7.75,16.75 8,16.5 8.25,16.25 8.5,16 8.75,15.75 9,15.5 9.25,15.25 9.5,15 9.75,14.75 10,14.5 10.25,14.25 10.5,14 10.75,13.75 11,13.5 11.25,13.25 11.625,13.125 L 12,13 11.71875,13.09375 11.4375,13.1875 11.625,13.125 q 0.1875,-0.0625 0.3125,-0.1875 l 0.125,-0.125 L 12,12.875 l -0.0625,0.0625 0.03125,0.53125 Q 12,14 12.125,14.375 12.25,14.75 12.5,15 q 0.25,0.25 0.5,0.5 0.25,0.25 0.625,0.375 Q 14,16 14.5,16 q 0.5,0 1,0 0.5,0 1,0 0.5,0 0.875,-0.125 Q 17.75,15.75 18,15.5 18.25,15.25 18.5,15 18.75,14.75 19,14.5 19.25,14.25 19.5,14 19.75,13.75 20,13.5 20.25,13.25 20.5,13 20.75,12.75 21,12.5 21.25,12.25 21.5,12 21.75,11.75 22,11.5 22.25,11.25 22.5,11 22.75,10.75 23,10.5 23.25,10.25 23.5,10 23.75,9.75 24,9.5 24.25,9.25 24.5,9 24.75,8.75 25,8.5 25.25,8.25 25.5,8 25.75,7.75 26,7.5 26.25,7.25 26.5,7 26.75,6.75 26.90625,6.34375"
       id="path9767"
       inkscape:connector-curvature="0" />
    <path
       style="fill:#9b928b;fill-opacity:1"
       d="M 11,7.5 Q 11.25,7.25 11.625,7.125 L 12,7 v 0.5 q 0,0.5 0,1 0,0.5 0,1 0,0.5 -0.125,0.875 Q 11.75,10.75 11.5,11 11.25,11.25 11,11.5 10.75,11.75 10.375,11.875 10,12 9.5,12 9,12 8.5,12 8,12 7.5,12 H 7 7.375 7.75 7.5 Q 7.25,12 7.03125,11.96875 L 6.8125,11.9375 6.921875,11.953125 7.03125,11.96875 7.140625,11.609375 Q 7.25,11.25 7.5,11 7.75,10.75 8,10.5 8.25,10.25 8.5,10 8.75,9.75 9,9.5 9.25,9.25 9.5,9 9.75,8.75 10,8.5 10.25,8.25 10.5,8 10.75,7.75 11,7.5 M 12,7.375 V 7 6.875 6.75 7 q 0,0.25 0,0.5 V 7.75 7.375"
       id="path9769"
       inkscape:connector-curvature="0" />
    <path
       style="fill:#666666;fill-opacity:1"
       d="M 28,9.5 Q 28,9 28.5,9 H 29 v 0.5 q 0,0.5 0,1 0,0.5 0,1 0,0.5 0,1 0,0.5 -0.125,0.875 Q 28.75,13.75 28.5,14 28.25,14.25 28,14.5 27.75,14.75 27.5,15 27.25,15.25 27,15.5 26.75,15.75 26.5,16 26.25,16.25 26,16.5 25.75,16.75 25.5,17 25.25,17.25 25,17.5 24.75,17.75 24.5,18 24.25,18.25 24,18.5 23.75,18.75 23.5,19 23.25,19.25 23,19.5 22.75,19.75 22.5,20 22.25,20.25 22,20.5 21.75,20.75 21.5,21 21.25,21.25 21,21.5 20.75,21.75 20.5,22 20.25,22.25 20,22.5 19.75,22.75 19.5,23 19.25,23.25 19,23.5 18.75,23.75 18.375,23.875 18,24 17.5,24 q -0.5,0 -1,0 -0.5,0 -1,0 -0.5,0 -1,0 -0.5,0 -1,0 -0.5,0 -0.875,0.125 L 12.25,24.25 12.53125,24.15625 12.8125,24.0625 12.625,24.125 q -0.1875,0.0625 -0.34375,0.15625 L 12.125,24.375 12.20313,24.32813 12.28126,24.28126 12.015635,24.015635 Q 11.75,23.75 11.875,23.375 12,23 12,22.5 12,22 12.5,22 13,22 13,21.5 13,21 13.5,21 14,21 14,20.5 14,20 14.5,20 15,20 15,19.5 15,19 15.5,19 16,19 16,18.5 16,18 16.5,18 q 0.5,0 1,0 0.5,0 1,0 0.5,0 1,0 Q 20,18 20,17.5 20,17 20.5,17 21,17 21,16.5 21,16 21.5,16 22,16 22,15.5 22,15 22.5,15 23,15 23,14.5 23,14 23.5,14 24,14 24,13.5 24,13 24.5,13 25,13 25,12.5 25,12 25.5,12 26,12 26,11.5 26,11 26.5,11 27,11 27,10.5 27,10 27.5,10 28,10 28,9.5"
       id="path9771"
       inkscape:connector-curvature="0" />
  </g>
</svg>
